Sources/FrostedUI/Resources/Icons.xcassets/beaker24.imageset/beaker-24.svg

<svg width="24" height="24" viewBox="0 0 24 24" fill="none" xmlns="http://www.w3.org/2000/svg" data-fui-icon="true">
  <path
    d="M17.4995 0.999756C17.9137 0.999756 18.2494 1.33561 18.2495 1.74976C18.2495 2.16397 17.9137 2.49976 17.4995 2.49976H15.9995V9.35327C15.9996 9.61587 16.0831 9.87181 16.2368 10.0847L22.4165 18.6394C23.7303 20.4579 22.4313 22.9995 20.188 22.9998H3.81201C1.56868 22.9995 0.26972 20.4579 1.5835 18.6394L7.76318 10.0847C7.91694 9.87179 7.99945 9.61591 7.99951 9.35327V2.49976H6.49951C6.08557 2.49944 5.74951 2.16377 5.74951 1.74976C5.74959 1.33581 6.08562 1.00007 6.49951 0.999756H17.4995ZM8.67529 15.4294C7.72619 15.2593 6.64128 15.3543 5.26904 16.0984L2.79932 19.5173C2.20219 20.3439 2.79244 21.4995 3.81201 21.4998H20.188C21.2076 21.4995 21.7978 20.3439 21.2007 19.5173L19.0425 16.531C17.626 17.4688 16.3588 17.8142 15.1597 17.7615C13.826 17.7028 12.6761 17.1519 11.6616 16.6384C10.6058 16.104 9.6972 15.6127 8.67529 15.4294ZM9.49951 9.35327C9.49945 9.93139 9.31756 10.495 8.979 10.9636L6.81885 13.9529C7.56781 13.8178 8.27075 13.8327 8.94092 13.9529C10.228 14.1838 11.3579 14.8028 12.3394 15.2996C13.362 15.8171 14.2498 16.2194 15.2251 16.2625C16.0363 16.2981 16.9827 16.0837 18.1636 15.3132L15.021 10.9636C14.6825 10.495 14.4996 9.93131 14.4995 9.35327V2.49976H9.49951V9.35327Z"
    fill="currentColor"
  />
</svg>

<svg xmlns="http://www.w3.org/2000/svg" width="24" height="24" fill="none" data-fui-icon="true" viewBox="0 0 24 24"><path fill="currentColor" d="M17.5 1a.75.75 0 0 1 0 1.5H16v6.853c0 .263.083.519.237.732l6.18 8.554c1.313 1.819.014 4.36-2.229 4.36H3.812c-2.243 0-3.542-2.541-2.228-4.36l6.18-8.554A1.25 1.25 0 0 0 8 9.353V2.5H6.5a.75.75 0 0 1 0-1.5zM8.675 15.43c-.949-.17-2.034-.076-3.406.668l-2.47 3.42c-.597.826-.007 1.982 1.013 1.982h16.376c1.02 0 1.61-1.156 1.013-1.983l-2.158-2.986c-1.417.938-2.684 1.283-3.883 1.23-1.334-.058-2.484-.61-3.498-1.123-1.056-.534-1.965-1.025-2.987-1.209M9.5 9.352a2.75 2.75 0 0 1-.521 1.61l-2.16 2.99a5.9 5.9 0 0 1 2.122 0c1.287.23 2.417.85 3.398 1.347 1.023.517 1.91.92 2.886.962.811.036 1.758-.178 2.939-.949l-3.143-4.35a2.75 2.75 0 0 1-.522-1.61V2.5h-5z"/></svg>
